X:1
T:Partita VI Tempo di Gavotta
T:BWV 830
T:J. S. Bach
%%score { 1 | 2 }
L:1/8
Q:1/4=144
M:2/2
K:G
V:1 treble nm="Harp"
V:2 bass 
V:1
"^Vivace" e/f/g (3:2:2B2 g | (3:2:2A2 g f2 c/B/A (3:2:2f2 A | (3:2:2G2 B E2- (3E^DE (3AGF | %3
 (3E^DE (3BGF (3EDE (3cGF | (3E^DE (3FGA (3GFG (3ABc | (3BAB (3cde (3dcd (3efg | %6
 (3fga d2- (3dcd (3gfe | (3edc (3cBA (3AGF (3FED | (3DCB, (3B,A,G, (3:2:2G,2 G (3:2:2F2 G | %9
 (3:2:2A,2 G (3:2:2F2 G (3:2:2B,2 G (3:2:2F2 G | (3:2:2C2 G (3:2:2F2 G (3DEF (3FGA | %11
 (3ABc (3dcB (3ABG (3DGF | G4 e/f/g (3:2:2B2 g | (3:2:2A2 g f2 c/B/A (3:2:2f2 A | %14
 (3:2:2G2 B E2- (3E^DE (3AGF | (3E^DE (3BGF (3EDE (3cGF | (3E^DE (3FGA (3GFG (3ABc | %17
 (3BAB (3cde (3dcd (3efg | (3fga d2- (3dcd (3gfe | (3edc (3cBA (3AGF (3FED | %20
 (3DCB, (3B,A,G, (3:2:2G,2 G (3:2:2F2 G | (3:2:2A,2 G (3:2:2F2 G (3:2:2B,2 G (3:2:2F2 G | %22
 (3:2:2C2 G (3:2:2F2 G (3DEF (3FGA | (3ABc (3dcB (3ABG (3DGF | G4 B/c/d (3:2:2G2 e | %25
 (3:2:2a2 ^c d2 (3cBA (3:2:2g2 e | (3:2:2f2 a d2- (3dgd (3BGF | (3GBd (3=fed (3eae (3^cA^G | %28
 (3A^ce (3gfe (3fbf (3^dB^A | (3B^df (3agf (3gfe (3=d^cB | (3^AB^c (3F^GA (3BAB (3edc | %31
 (3B^AB (3fd^c (3BAB (3gdc | (3B^AB (3bag (3gfe (3ed^c | (3^cB^A (3A^GF (3FED (6:4:4E/D/^CB, | %34
 B,2- B,/A/B/c/ d/c/B (3:2:2=f2 A | (3:2:2^G2 B d2 (3=FEF (3dcB | (3E^DE (3cBA (3EFE (3cBA | %37
 (3GFG (3B^de (3GAG (3gfe | (3^def B2 e/f/g (3:2:2B2 g | (3:2:2A2 g f2 d/c/B (3:2:2=f2 G | %40
 (3:2:2d2 =f e2- (3:2:2e2 e (3:2:2^d2 e | (3:2:2F2 e (3:2:2^d2 e (3:2:2G2 e (3:2:2d2 e | %42
 (3:2:2A2 e (3:2:2^d2 e (3B^c=d (3^def | (3fga (3bag (3fge (3Be^d |{^d} e4 B/c/=d (3:2:2G2 e | %45
 (3:2:2a2 ^c d2 (3cBA (3:2:2g2 e | (3:2:2f2 a d2- (3dgd (3BGF | (3GBd (3=fed (3eae (3^cA^G | %48
 (3A^ce (3gfe (3fbf (3^dB^A | (3B^df (3agf (3gfe (3=d^cB | (3^AB^c (3F^GA (3BAB (3edc | %51
 (3B^AB (3fd^c (3BAB (3gdc | (3B^AB (3bag (3gfe (3ed^c | (3^cB^A (3A^GF (3FED (6:4:4E/D/^CB, | %54
 B,2- B,/A/B/c/ d/c/B (3:2:2=f2 A | (3:2:2^G2 B d2 (3=FEF (3dcB | (3E^DE (3cBA (3EFE (3cBA | %57
 (3GFG (3B^de (3GAG (3gfe | (3^def B2 e/f/g (3:2:2B2 g | (3:2:2A2 g f2 d/c/B (3:2:2=f2 G | %60
 (3:2:2d2 =f e2- (3:2:2e2 e (3:2:2^d2 e | (3:2:2F2 e (3:2:2^d2 e (3:2:2G2 e (3:2:2d2 e | %62
 (3:2:2A2 e (3:2:2^d2 e (3B^c=d (3^def | (3fga (3bag (3fge (3Be^d |{!fermata!^d} !fermata!e4 z4 |] %65
V:2
 E,2 G,2 | C2- C/B,/A, ^D2 B,2 | E2- E>D (3:2:2C2 E, (3:2:2^D,2 E, | %3
 (3:2:2B,2 E, (3:2:2^D,2 E, (3:2:2A,2 E, (3:2:2D,2 E, | %4
 (3:2:2G,2 E, (3:2:2^D,2 B, (3:2:2E,2 C (3:2:2F,2[I:staff -1] D | %5
[I:staff +1] (3:2:2G,2[I:staff -1] E[I:staff +1] (3:2:2A,2[I:staff -1] F[I:staff +1] (3:2:2B,2[I:staff -1] G[I:staff +1] (3:2:2C2[I:staff -1] A | %6
[I:staff +1] D2- D/C/B,/A,/ G,/A,/B, (3:2:2E,2 B, | (3:2:2C,2 B, A,2 F,/E,/D, (3:2:2A,2 C, | %8
 (3:2:2B,,2 A, G,2 (3E,F,G, (3B,,A,,G,, | (3F,G,A, (3C,B,,A,, (3G,A,B, (3D,C,B,, | %10
 (3A,B,C (3E,D,C, (3:2:2B,,2 G, (3:2:2A,,2 F, | %11
 (3:2:2G,,2 E, (3:2:2F,,2 D, (3:2:2E,,2 ^C, (3:2:2D,2 D,, | (3G,,B,,D, (3G,D,B,, E,2 G,2 | %13
 C2- C/B,/A, ^D2 B,2 | E2- E>D (3:2:2C2 E, (3:2:2^D,2 E, | %15
 (3:2:2B,2 E, (3:2:2^D,2 E, (3:2:2A,2 E, (3:2:2D,2 E, | %16
 (3:2:2G,2 E, (3:2:2^D,2 B, (3:2:2E,2 C (3:2:2F,2[I:staff -1] D | %17
[I:staff +1] (3:2:2G,2[I:staff -1] E[I:staff +1] (3:2:2A,2[I:staff -1] F[I:staff +1] (3:2:2B,2[I:staff -1] G[I:staff +1] (3:2:2C2[I:staff -1] A | %18
[I:staff +1] D2- D/C/B,/A,/ G,/A,/B, (3:2:2E,2 B, | (3:2:2C,2 B, A,2 F,/E,/D, (3:2:2A,2 C, | %20
 (3:2:2B,,2 A, G,2 (3E,F,G, (3B,,A,,G,, | (3F,G,A, (3C,B,,A,, (3G,A,B, (3D,C,B,, | %22
 (3A,B,C (3E,D,C, (3:2:2B,,2 G, (3:2:2A,,2 F, | %23
 (3:2:2G,,2 E, (3:2:2F,,2 D, (3:2:2E,,2 ^C, (3:2:2D,2 D,, | (3G,,B,,D, (3G,D,B,, G,,2 G,2- | %25
 (3G,F,E, (3:2:2F,2 B, (3E,F,G, (3A,B,^C | D2- D/C/B,/A,/ (3:2:2B,2 D G,2- | %27
 (3G,D,B,, (3:2:2G,,2 B, (3:2:2C2 E A,2- | (3A,E,^C, (3:2:2A,,2 ^C (3:2:2D2 F B,2- | %29
 (3B,F,^D, (3:2:2B,,2 ^D (3:2:2E2 ^A, (3:2:2B,2 G, | F,2- (3F,E,F, (3:2:2G,2 B, (3:2:2^A,2 B, | %31
 (3:2:2F,2 B, (3:2:2^A,2 B, (3:2:2E,2 B, (3:2:2A,2 B, | %32
 (3:2:2D,2 B, (3:2:2^A,2 B, (3^C,D,E, (3:2:2B,,2 G, | (3:2:2^A,,2 G, F,2 (3D,^C,B,, (3:2:2F,2 F,, | %34
 (3B,,D,F, (3A,^G,F, (3G,A,B, D,2- | (3D,F,D, (3B,,D,B,, (3^G,,B,,G,, (3:2:2E,,2 ^G, | %36
 (3A,B,C (3:2:2G,2 C (3:2:2F,2 C (3:2:2^D,2 B, | %37
 (3:2:2E,2 B, (3:2:2G,2 E, (3:2:2C,2 A, (3:2:2^C,2 ^A, | B,2- B,/^D/E/F/ (3GFE (3E=D^C | %39
 (3^CB,A, (3A,G,F, (3F,E,D, (3D,C,B,, | (3B,,A,,G,, (3C,F,,E,, (3^C,,E,,F,, (3^A,,B,,^C, | %41
 (3C,^D,F, (3A,B,C (3B,A,G, (3F,G,E, | (3CB,A, (3G,F,E, (3:2:2^D,2 B,, (3:2:2F,2 B,, | %43
 (3:2:2A,2 ^D, (3:2:2G,2 E, (3A,B,C (3B,A,B, | (3E,G,B, E2 G,,2 G,2- | %45
 (3G,F,E, (3:2:2F,2 B, (3E,F,G, (3A,B,^C | D2- D/C/B,/A,/ (3:2:2B,2 D G,2- | %47
 (3G,D,B,, (3:2:2G,,2 B, (3:2:2C2 E A,2- | (3A,E,^C, (3:2:2A,,2 ^C (3:2:2D2 F B,2- | %49
 (3B,F,^D, (3:2:2B,,2 ^D (3:2:2E2 ^A, (3:2:2B,2 G, | F,2- (3F,E,F, (3:2:2G,2 B, (3:2:2^A,2 B, | %51
 (3:2:2F,2 B, (3:2:2^A,2 B, (3:2:2E,2 B, (3:2:2A,2 B, | %52
 (3:2:2D,2 B, (3:2:2^A,2 B, (3^C,D,E, (3:2:2B,,2 G, | (3:2:2^A,,2 G, F,2 (3D,^C,B,, (3:2:2F,2 F,, | %54
 (3B,,D,F, (3A,^G,F, (3G,A,B, D,2- | (3D,F,D, (3B,,D,B,, (3^G,,B,,G,, (3:2:2E,,2 ^G, | %56
 (3A,B,C (3:2:2G,2 C (3:2:2F,2 C (3:2:2^D,2 B, | %57
 (3:2:2E,2 B, (3:2:2G,2 E, (3:2:2C,2 A, (3:2:2^C,2 ^A, | B,2- B,/^D/E/F/ (3GFE (3E=D^C | %59
 (3^CB,A, (3A,G,F, (3F,E,D, (3D,C,B,, | (3B,,A,,G,, (3C,F,,E,, (3^C,,E,,F,, (3^A,,B,,^C, | %61
 (3C,^D,F, (3A,B,C (3B,A,G, (3F,G,E, | (3CB,A, (3G,F,E, (3:2:2^D,2 B,, (3:2:2F,2 B,, | %63
 (3:2:2A,2 ^D, (3:2:2G,2 E, (3A,B,C (3B,A,B, | (3E,G,B, !fermata!E2 z4 |] %65

